X: 1
T: North West Arm
C: Kevin Roach
R: reel
Z: 2014 John Chambers <jc:trillian.mit.edu>
S: page in Concord Slow Scottish Session collection
N: "Kevin Roach is a Halifax based musician. North West Arm is one of the bays surrounding Halifax."
M: C|
L: 1/8
K: D
dB |\
AD (3(FED) A,B,CE | DEFA dAAc | BEED EFGA | gfed cAAG |
(3(FED) FA dAAF | GFGB gfed | cAcd egfe | dfTfe d2 :|
|: fg |\
af-~f2 dB-~B2 | AFFE {E}F2EF | GFGB gfed cdec [1A2fg |
af-~f2 dB-~B2 | FGAF D2EF | GFGB gfec | dfTfe d2 :|
[2 ABAG | (3(FED) FA dAAF | GFGB gfed | cAcd egfe | dfTfe d2 |]
